DVA
CUT[Fahr mir nit ueber mein Aeckerchen,
    fahr mir nit ueber mein Wies]
REG[Europa, Mitteleuropa, Deutschland, Untermainfranken, Spessart]
KEY[D0165  08  G 3/4]
MEL[5_.55_  6_5_4_  3_3_3_
    5_.55_  6_5_4_  3__0_
    3_.23_  4_3_2_  5_.55_
    3_.33_  4_3_2_  1__0_ //] >>
FCT[Tanz - Lied]
CMT[Inzipit = Variante zum Lied]
